src/components/assets/right.svg

<svg fill="none" height="25" viewBox="0 0 13 25" width="13" xmlns="http://www.w3.org/2000/svg" xmlns:xlink="http://www.w3.org/1999/xlink"><linearGradient id="a" gradientUnits="userSpaceOnUse" x1="13" x2="-3.43074" y1="4.11392" y2="9.11751"><stop offset="0" stop-color="#ffb36d"/><stop offset="1" stop-color="#f88"/></linearGradient><path d="m12.6548 11.6077-10.61759-11.238651c-.46589-.492065-1.220718-.492065-1.687789 0-.465895.492064-.465895 1.291301 0 1.783371l9.775479 10.34698-9.774302 10.3469c-.465895.4921-.465895 1.2913 0 1.7847.465894.492 1.221892.492 1.687792 0l10.61761-11.2387c.4589-.487.4589-1.2988-.0012-1.7846z" fill="url(#a)"/></svg>

<svg width="13" height="25" viewBox="0 0 13 25" fill="none" xmlns="http://www.w3.org/2000/svg">
<path d="M12.6548 11.6077L2.03721 0.369049C1.57132 -0.123016 0.816492 -0.123016 0.349421 0.369049C-0.116474 0.861113 -0.116474 1.66035 0.349421 2.15242L10.1249 12.4994L0.350598 22.8463C-0.115297 23.3384 -0.115297 24.1376 0.350598 24.631C0.816492 25.123 1.57249 25.123 2.03839 24.631L12.656 13.3923C13.1149 12.9053 13.1149 12.0935 12.6548 11.6077Z" fill="url(#paint0_linear)"/>
<defs>
<linearGradient id="paint0_linear" x1="13" y1="4.11392" x2="-3.43074" y2="9.11751" gradientUnits="userSpaceOnUse">
<stop stop-color="#FFB36D"/>
<stop offset="1" stop-color="#FF8888"/>
</linearGradient>
</defs>
</svg>
